X: 31015
T: Pad Jo McSweeney's
R: polka
M: 2/4
K: Dmajor
A>B|:d2 e2|fa fe|d2 e2|fB Bc|
d2 e2|fa fe|d2 cA|B2 B>c:|
|:d2 c2|BA FA|d2 e2|fa fe|
d2 c2|BA FA|Bd cA|1 B2 B>c:|2 B2 B2||**

